exported-svg/pen-tool.svg

<svg height="24" viewBox="0 0 24 24" width="24" xmlns="http://www.w3.org/2000/svg"><path d="m8.41461924 9.12172602-6.01119003-6.01119003 3.0081193 12.46220851 6.92453509 1.384907 4.6215679-4.6215679-1.384907-6.92453509-12.46220851-3.0081193 6.01119003 6.01119003c.39521651-.26175989.86915378-.41419827 1.37869498-.41419827 1.3807118 0 2.5 1.11928813 2.5 2.50000003 0 1.3807118-1.1192882 2.5-2.5 2.5-1.3807119 0-2.50000003-1.1192882-2.50000003-2.5 0-.5095412.15243838-.98347847.41419827-1.37869498zm1.0144677.32881646c-.26516718.27055205-.42866597.64112172-.42866597 1.04987852 0 .8284271.67157287 1.5 1.50000003 1.5.8284271 0 1.5-.6715729 1.5-1.5 0-.82842716-.6715729-1.50000003-1.5-1.50000003-.4087568 0-.77932647.16349879-1.04987852.42866597-.00345675.00366912-.00697946.00729876-.01056812.01088742s-.0072183.00711137-.01088742.01056812zm2.05716006 8.35694562-6.5838841-1.3167768c-.19091242-.0381825-.34230011-.1837122-.38798303-.3729701l-3.5-14.49999996c-.08772969-.36345157.2399098-.69109106.60336137-.60336137l14.49999996 3.5c.1892579.04568292.3347876.19707061.3729701.38798303l1.3167768 6.5838841.3393795-.3393794c.1952621-.1952622.5118446-.1952622.7071068 0l3 3c.1952621.1952621.1952621.5118446 0 .7071068l-7 7c-.1952622.1952621-.5118447.1952621-.7071068 0l-3-3c-.1952622-.1952622-.1952622-.5118447 0-.7071068zm1.3677274.0464863-.6464466.6464466 2.2928932 2.2928932 6.2928932-6.2928932-2.2928932-2.2928932-.6464466.6464466z"/></svg>

<?xml version="1.0" encoding="UTF-8"?>
<svg width="24px" height="24px" viewBox="0 0 24 24" version="1.1" xmlns="http://www.w3.org/2000/svg" xmlns:xlink="http://www.w3.org/1999/xlink">
    <!-- Generator: Sketch 55.2 (78181) - https://sketchapp.com -->
    <title>pen-tool</title>
    <desc>Created with Sketch.</desc>
    <g id="pen-tool" stroke="none" stroke-width="1" fill="none" fill-rule="evenodd">
        <path d="M8.41461924,9.12172602 L2.40342921,3.11053599 L5.41154851,15.5727445 L12.3360836,16.9576515 L16.9576515,12.3360836 L15.5727445,5.41154851 L3.11053599,2.40342921 L9.12172602,8.41461924 C9.51694253,8.15285935 9.9908798,8.00042097 10.500421,8.00042097 C11.8811328,8.00042097 13.000421,9.1197091 13.000421,10.500421 C13.000421,11.8811328 11.8811328,13.000421 10.500421,13.000421 C9.1197091,13.000421 8.00042097,11.8811328 8.00042097,10.500421 C8.00042097,9.9908798 8.15285935,9.51694253 8.41461924,9.12172602 Z M9.42908694,9.45054248 C9.16391976,9.72109453 9.00042097,10.0916642 9.00042097,10.500421 C9.00042097,11.3288481 9.67199384,12.000421 10.500421,12.000421 C11.3288481,12.000421 12.000421,11.3288481 12.000421,10.500421 C12.000421,9.67199384 11.3288481,9.00042097 10.500421,9.00042097 C10.0916642,9.00042097 9.72109453,9.16391976 9.45054248,9.42908694 C9.44708573,9.43275606 9.44356302,9.4363857 9.43997436,9.43997436 C9.4363857,9.44356302 9.43275606,9.44708573 9.42908694,9.45054248 Z M11.486247,17.8074881 L4.9023629,16.4907113 C4.71145048,16.4525288 4.56006279,16.3069991 4.51437987,16.1177412 L1.01437987,1.61774124 C0.926650176,1.25428967 1.25428967,0.926650176 1.61774124,1.01437987 L16.1177412,4.51437987 C16.3069991,4.56006279 16.4525288,4.71145048 16.4907113,4.9023629 L17.8074881,11.486247 L18.1468676,11.1468676 C18.3421297,10.9516054 18.6587122,10.9516054 18.8539744,11.1468676 L21.8539744,14.1468676 C22.0492365,14.3421297 22.0492365,14.6587122 21.8539744,14.8539744 L14.8539744,21.8539744 C14.6587122,22.0492365 14.3421297,22.0492365 14.1468676,21.8539744 L11.1468676,18.8539744 C10.9516054,18.6587122 10.9516054,18.3421297 11.1468676,18.1468676 L11.486247,17.8074881 Z M12.8539744,17.8539744 L12.2075278,18.500421 L14.500421,20.7933142 L20.7933142,14.500421 L18.500421,12.2075278 L17.8539744,12.8539744 L12.8539744,17.8539744 Z" id="Combined-Shape" fill="#000000" fill-rule="nonzero"></path>
    </g>
</svg>
